local/share/icons/dracula-icons-main/scalable/mimetypes/text-x-ruby.svg

<?xml version="1.0" encoding="UTF-8"?>
<svg xmlns="http://www.w3.org/2000/svg" xmlns:xlink="http://www.w3.org/1999/xlink" width="64" height="64" viewBox="0 0 64 64">
<defs>
<filter id="filter-remove-color" x="0%" y="0%" width="100%" height="100%">
<feColorMatrix color-interpolation-filters="sRGB" values="0 0 0 0 1 0 0 0 0 1 0 0 0 0 1 0 0 0 1 0" />
</filter>
<mask id="mask-0">
<g filter="url(#filter-remove-color)">
<rect x="-6.4" y="-6.4" width="76.8" height="76.8" fill="rgb(0%, 0%, 0%)" fill-opacity="0.1"/>
</g>
</mask>
<linearGradient id="linear-pattern-0" gradientUnits="userSpaceOnUse" x1="49.570999" y1="52.714001" x2="51.714001" y2="54.856998" gradientTransform="matrix(0.617345, 0, 0, 0.617345, -18.167916, -19.050025)">
<stop offset="0" stop-color="rgb(0%, 0%, 0%)" stop-opacity="1"/>
<stop offset="1" stop-color="rgb(0%, 0%, 0%)" stop-opacity="0"/>
</linearGradient>
<clipPath id="clip-0">
<rect x="0" y="0" width="17" height="17"/>
</clipPath>
<g id="source-8070" clip-path="url(#clip-0)">
<path fill-rule="evenodd" fill="url(#linear-pattern-0)" d="M 14.816406 12.171875 L 11.113281 15.875 L 13.492188 15.875 C 14.226562 15.875 14.816406 15.285156 14.816406 14.550781 Z M 14.816406 12.171875 "/>
</g>
</defs>
<path fill-rule="nonzero" fill="rgb(95.686275%, 95.686275%, 95.686275%)" fill-opacity="1" d="M 3.441406 1.058594 L 13.492188 1.058594 C 14.222656 1.058594 14.816406 1.652344 14.816406 2.382812 L 14.816406 14.550781 C 14.816406 15.28125 14.222656 15.875 13.492188 15.875 L 3.441406 15.875 C 2.707031 15.875 2.117188 15.28125 2.117188 14.550781 L 2.117188 2.382812 C 2.117188 1.652344 2.707031 1.058594 3.441406 1.058594 Z M 3.441406 1.058594 "/>
<g mask="url(#mask-0)">
<use xlink:href="#source-8070"/>
</g>
<path fill-rule="evenodd" fill="rgb(95.686275%, 26.27451%, 21.176471%)" fill-opacity="1" d="M 10.230469 5.433594 L 10.292969 5.519531 L 9.984375 6.710938 L 9.867188 6.730469 L 9.117188 5.539062 L 9.171875 5.433594 Z M 7.761719 5.433594 L 7.8125 5.542969 L 6.929688 6.796875 L 6.8125 6.765625 L 6.636719 5.511719 L 6.703125 5.433594 Z M 10.898438 5.457031 L 12.222656 7.179688 L 12.171875 7.285156 L 10.320312 7.285156 L 10.257812 7.199219 L 10.785156 5.480469 Z M 8.519531 5.457031 L 9.839844 7.179688 L 9.789062 7.285156 L 7.144531 7.285156 L 7.09375 7.179688 L 8.414062 5.457031 Z M 6.035156 5.457031 L 6.148438 5.480469 L 6.675781 7.199219 L 6.613281 7.285156 L 4.761719 7.285156 L 4.710938 7.179688 Z M 12.171875 7.550781 L 12.21875 7.664062 L 8.78125 11.5 L 8.671875 11.425781 L 10.257812 7.589844 L 10.320312 7.550781 Z M 9.789062 7.550781 L 9.851562 7.644531 L 8.527344 10.949219 L 8.40625 10.949219 L 7.082031 7.644531 L 7.144531 7.550781 Z M 6.613281 7.550781 L 6.675781 7.589844 L 8.261719 11.425781 L 8.152344 11.5 L 4.714844 7.664062 L 4.761719 7.550781 Z M 6.613281 7.550781 "/>
</svg>

<svg width="64" height="64" version="1.1" viewBox="0 0 16.933 16.933" xmlns="http://www.w3.org/2000/svg">
 <defs>
  <linearGradient id="a" x1="49.571" x2="51.714" y1="52.714" y2="54.857" gradientTransform="matrix(2.3333,0,0,2.3333,-68.667,-72.001)" gradientUnits="userSpaceOnUse">
   <stop offset="0"/>
   <stop stop-opacity="0" offset="1"/>
  </linearGradient>
 </defs>
 <g transform="scale(.26458)">
  <rect x="8" y="4" width="48" height="56" ry="5" fill="#f4f4f4" style="paint-order:stroke fill markers"/>
  <path d="m56 46-14 14h9c2.77 0 5-2.23 5-5z" fill="url(#a)" fill-rule="evenodd" opacity=".1" stroke-width="8.8191" style="paint-order:stroke fill markers"/>
 </g>
 <path d="m10.231 5.4344 0.0635 0.08468-0.30902 1.1906-0.1175 0.0197-0.74929-1.1906 0.054-0.10438zm-2.4701 0 0.05206 0.10697-0.88158 1.2567-0.11743-0.03055-0.17673-1.2567 0.06537-0.07641zm3.1379 0.02377 1.3229 1.7198-0.05083 0.10852h-1.852l-0.06272-0.08707 0.52916-1.7198zm-2.3812 0 1.3229 1.7198-0.05084 0.10852h-2.6458l-0.05084-0.10852 1.3229-1.7198zm-2.4829 0 0.11356 0.02144 0.52916 1.7198-0.06272 0.08707h-1.852l-0.05084-0.10852zm6.1361 2.0929 0.04845 0.11116-3.4395 3.8364-0.10923-0.07105 1.5875-3.8364 0.06078-0.04011zm-2.3812 0 0.06104 0.09159-1.3229 3.3072h-0.12208l-1.3229-3.3072 0.06104-0.09159zm-3.1749 0 0.06078 0.04011 1.5875 3.8364-0.10923 0.07105-3.4395-3.8364 0.04845-0.11117z" color="#000000" color-rendering="auto" fill="#f44336" fill-rule="evenodd" image-rendering="auto" shape-rendering="auto" solid-color="#000000" style="isolation:auto;mix-blend-mode:normal;text-decoration-color:#000000;text-decoration-line:none;text-decoration-style:solid;text-indent:0;text-transform:none;white-space:normal"/>
</svg>
